X: 4067
T: DELVIN SIDE
R: Reel.
%R: reel
N: This is version 2, for ABC software that understands voice overlays.
B: James Kerr "Merry Melodies" v.4 p.10 #67
Z: 2016 John Chambers <jc:trillian.mit.edu>
M: C|
L: 1/8
K: D
|:\
DCDE FEFA | dFAF "^2nd"dFAg & x4 "_1st"dFAF |\
[1 E/E/E (ED) EFGA | (3(Bcd) (AF) FEEF :|\
[2 faef deBd | AFEF D2A2 ||
|:\
defg afdg | (3(faf) (df) a2 (gf) |\
[1 e^def gfgf | (3(efg) (fa) g2 (fe) :|\
[2 gbef deBd | AFEF D2d2 |]

%%sep 1 1 500
%%sep 1 1 500

